X: 22095
T: Knole Park
R: polka
M: 2/4
K: Dmajor
A>B AF|Ad fd|Be/f/ ge|d/e/d/c/ BA|
AA/B/ AF|Ad fd|B>g f/e/d/c/|d2:|
a>f Aa/f/|ge Ag|fd g/f/e/d/|
[1 cB Af/g/|a>f Aa/f/|ge Ag|fd f/e/d/c/|d2:|
[2 c>B AG|Bg Af/f/|Ge Fd/d/|Eg f/e/d/c/|d2||

